Newaita-dark/apps/64/com.github.bitseater.weather.svg

<svg height="64pt" viewBox="0 0 64 64" width="64pt" xmlns="http://www.w3.org/2000/svg" xmlns:xlink="http://www.w3.org/1999/xlink"><linearGradient id="a" gradientTransform="matrix(.00763431 0 0 .125012 29.803818 26.877569)" gradientUnits="userSpaceOnUse" x1="254" x2="254" y1="233.5" y2="254.66667"><stop offset="0" stop-opacity=".27451"/><stop offset="1" stop-opacity="0"/></linearGradient><linearGradient id="b"><stop offset="0" stop-opacity=".313725"/><stop offset=".222222" stop-opacity=".27451"/><stop offset="1" stop-opacity="0"/></linearGradient><radialGradient id="c" cx="450.90894" cy="189.57936" gradientTransform="matrix(.00000035 -.156265 -.281277 -.0000002 85.738694 127.190669)" gradientUnits="userSpaceOnUse" r="21.166656" xlink:href="#b"/><radialGradient id="d" cx="450.90894" cy="189.57936" gradientTransform="matrix(-.00000035 .156265 .281277 .0000002 -22.232622 -15.054957)" gradientUnits="userSpaceOnUse" r="21.166656" xlink:href="#b"/><radialGradient id="e" cx="450.90894" cy="189.57936" gradientTransform="matrix(-.00000035 -.156265 .281277 -.0000002 -22.232622 127.190669)" gradientUnits="userSpaceOnUse" r="21.166656" xlink:href="#b"/><radialGradient id="f" cx="450.90894" cy="189.57936" gradientTransform="matrix(.00000035 .156265 -.281277 .0000002 85.738691 -15.054959)" gradientUnits="userSpaceOnUse" r="21.166656" xlink:href="#b"/><linearGradient id="g" gradientUnits="userSpaceOnUse" x1="31.753056" x2="31.753056" y1="56.06789909502" y2="5.79222444893"><stop offset="0" stop-color="#bdbdbd"/><stop offset="1" stop-color="#e0e0e0"/></linearGradient><linearGradient id="h" gradientUnits="userSpaceOnUse" x1="31.753056" x2="31.753056" y1="56.06789909502" y2="5.79222444893"><stop offset="0" stop-color="#5c6bc0"/><stop offset="1" stop-color="#7986cb"/></linearGradient><linearGradient id="i" gradientUnits="userSpaceOnUse" x1="31.753056" x2="31.753056" y1="56.06789909502" y2="5.79222477969"><stop offset="0" stop-color="#f44336"/><stop offset="1" stop-color="#ef5350"/></linearGradient><path d="m30.429688 56.066406h2.644531v2.648438h-2.644531zm0 0" fill="url(#a)"/><path d="m33.074219 56.066406h5.292969v-2.644531h-5.292969zm0 0" fill="url(#c)"/><path d="m30.429688 56.066406h-5.292969v2.648438h5.292969zm0 0" fill="url(#d)"/><path d="m30.429688 56.066406h-5.292969v-2.644531h5.292969zm0 0" fill="url(#e)"/><path d="m33.074219 56.066406h5.292969v2.648438h-5.292969zm0 0" fill="url(#f)"/><path d="m31.753906 5.792969c-3.664062 0-6.617187 2.949219-6.617187 6.613281v16.132812c-4.71875 2.398438-7.9375 7.296876-7.9375 12.976563 0 8.0625 6.492187 14.550781 14.554687 14.550781s14.550782-6.488281 14.550782-14.550781c0-5.679687-3.21875-10.578125-7.9375-12.976563v-16.132812c0-3.664062-2.949219-6.613281-6.613282-6.613281zm0 0" fill="url(#g)"/><path d="m31.753906 8.4375c-2.199218 0-3.96875 1.769531-3.96875 3.96875v17.875c-4.636718 1.625-7.941406 6.03125-7.941406 11.234375 0 6.59375 5.3125 11.90625 11.910156 11.90625s11.90625-5.3125 11.90625-11.90625c0-5.203125-3.304687-9.609375-7.9375-11.234375v-17.875c0-2.199219-1.769531-3.96875-3.96875-3.96875zm0 0" fill="url(#h)"/><path d="m27.785156 25.652344v4.628906c-4.636718 1.625-7.941406 6.03125-7.941406 11.234375 0 6.59375 5.3125 11.90625 11.910156 11.90625s11.90625-5.3125 11.90625-11.90625c0-5.203125-3.304687-9.609375-7.9375-11.234375v-4.628906c-1.984375-2-5.953125-2-7.9375 0zm0 0" fill="url(#i)"/><path d="m31.753906 5.792969c-3.664062 0-6.617187 2.949219-6.617187 6.613281v.496094c0-3.664063 2.953125-6.613282 6.617187-6.613282 3.664063 0 6.613282 2.949219 6.613282 6.613282v-.496094c0-3.664062-2.949219-6.613281-6.613282-6.613281zm-6.617187 22.746093c-4.71875 2.398438-7.9375 7.296876-7.9375 12.976563 0 .082031 0 .164063.003906.246094.089844-5.570313 3.285156-10.363281 7.933594-12.726563zm13.230469 0v.496094c4.652343 2.363282 7.84375 7.15625 7.9375 12.726563 0-.082031 0-.164063 0-.246094 0-5.679687-3.21875-10.578125-7.9375-12.976563zm0 0" fill="#fff" fill-opacity=".960784"/><path d="m17.203125 41.15625c0 .121094-.003906.238281-.003906.359375 0 8.0625 6.492187 14.550781 14.554687 14.550781s14.550782-6.488281 14.550782-14.550781c0-.121094 0-.238281-.003907-.359375-.203125 7.882812-6.613281 14.167969-14.546875 14.167969s-14.34375-6.285157-14.550781-14.167969zm0 0" fill-opacity=".235294"/><path d="m960.026444 175.140757c-110.776824 0-200.059638 89.164715-200.059638 199.941539v487.748704c-142.663543 72.512762-239.977086 220.608857-239.977086 392.324745 0 243.756253 196.280471 439.918625 440.036724 439.918625s439.918626-196.162372 439.918626-439.918625c0-171.715888-97.313543-319.811983-239.977087-392.324745v-487.748704c0-110.776824-89.164714-199.941539-199.941539-199.941539zm0 0" fill="none" stroke="#212121" stroke-linecap="round" stroke-linejoin="round" stroke-width="11.338583" transform="scale(.0330761)"/><path d="m19.847656 41.824219c0 .089843-.003906.183593-.003906.277343 0 6.59375 5.3125 11.90625 11.910156 11.90625s11.90625-5.3125 11.90625-11.90625c0-.09375 0-.1875-.003906-.277343-.148438 6.460937-5.402344 11.621093-11.902344 11.621093-6.503906 0-11.753906-5.160156-11.90625-11.621093zm0 0" fill="#fff7f7"/><path d="m31.753906 8.4375c-2.199218 0-3.96875 1.769531-3.96875 3.96875v.664062c0-2.199218 1.769532-3.96875 3.96875-3.96875 2.199219 0 3.96875 1.769532 3.96875 3.96875v-.664062c0-2.199219-1.769531-3.96875-3.96875-3.96875zm-3.96875 21.84375c-4.636718 1.625-7.941406 6.03125-7.941406 11.234375 0 .113281.003906.222656.007812.335937.132813-5.0625 3.394532-9.316406 7.933594-10.910156zm7.9375 0v.660156c4.535156 1.59375 7.800782 5.847656 7.933594 10.910156.003906-.113281.003906-.222656.003906-.335937 0-5.203125-3.304687-9.609375-7.9375-11.234375zm0 0" fill-opacity=".235294"/><path d="m960.026444 255.093753c-66.489714 0-119.988543 53.498829-119.988543 119.988543v540.420841c-140.183465 49.129167-240.095185 182.344793-240.095185 339.652608 0 199.351044 160.614585 359.96563 360.083728 359.96563 199.469144 0 359.96563-160.614586 359.96563-359.96563 0-157.307815-99.91172-290.523441-239.977086-339.652608v-540.420841c0-66.489714-53.498829-119.988543-119.988544-119.988543zm0 0" fill="none" stroke="#212121" stroke-linecap="round" stroke-linejoin="round" stroke-width="11.338583" transform="scale(.0330761)"/></svg>

<?xml version="1.0" encoding="UTF-8"?>
<svg xmlns="http://www.w3.org/2000/svg" xmlns:xlink="http://www.w3.org/1999/xlink" width="64pt" height="64pt" viewBox="0 0 64 64" version="1.1">
<defs>
<linearGradient id="linear0" gradientUnits="userSpaceOnUse" x1="254" y1="233.5" x2="254" y2="254.66667" gradientTransform="matrix(0.00763431,0,0,0.125012,29.803818,26.877569)">
<stop offset="0" style="stop-color:rgb(0%,0%,0%);stop-opacity:0.27451;"/>
<stop offset="1" style="stop-color:rgb(0%,0%,0%);stop-opacity:0;"/>
</linearGradient>
<radialGradient id="radial0" gradientUnits="userSpaceOnUse" cx="450.90894" cy="189.57936" fx="450.90894" fy="189.57936" r="21.166656" gradientTransform="matrix(0.000000348341,-0.156265,-0.281277,-0.000000203077,85.738694,127.190669)">
<stop offset="0" style="stop-color:rgb(0%,0%,0%);stop-opacity:0.313725;"/>
<stop offset="0.222222" style="stop-color:rgb(0%,0%,0%);stop-opacity:0.27451;"/>
<stop offset="1" style="stop-color:rgb(0%,0%,0%);stop-opacity:0;"/>
</radialGradient>
<radialGradient id="radial1" gradientUnits="userSpaceOnUse" cx="450.90894" cy="189.57936" fx="450.90894" fy="189.57936" r="21.166656" gradientTransform="matrix(-0.000000348341,0.156265,0.281277,0.000000203077,-22.232622,-15.054957)">
<stop offset="0" style="stop-color:rgb(0%,0%,0%);stop-opacity:0.313725;"/>
<stop offset="0.222222" style="stop-color:rgb(0%,0%,0%);stop-opacity:0.27451;"/>
<stop offset="1" style="stop-color:rgb(0%,0%,0%);stop-opacity:0;"/>
</radialGradient>
<radialGradient id="radial2" gradientUnits="userSpaceOnUse" cx="450.90894" cy="189.57936" fx="450.90894" fy="189.57936" r="21.166656" gradientTransform="matrix(-0.000000348341,-0.156265,0.281277,-0.000000203077,-22.232622,127.190669)">
<stop offset="0" style="stop-color:rgb(0%,0%,0%);stop-opacity:0.313725;"/>
<stop offset="0.222222" style="stop-color:rgb(0%,0%,0%);stop-opacity:0.27451;"/>
<stop offset="1" style="stop-color:rgb(0%,0%,0%);stop-opacity:0;"/>
</radialGradient>
<radialGradient id="radial3" gradientUnits="userSpaceOnUse" cx="450.90894" cy="189.57936" fx="450.90894" fy="189.57936" r="21.166656" gradientTransform="matrix(0.000000348341,0.156265,-0.281277,0.000000203077,85.738691,-15.054959)">
<stop offset="0" style="stop-color:rgb(0%,0%,0%);stop-opacity:0.313725;"/>
<stop offset="0.222222" style="stop-color:rgb(0%,0%,0%);stop-opacity:0.27451;"/>
<stop offset="1" style="stop-color:rgb(0%,0%,0%);stop-opacity:0;"/>
</radialGradient>
<linearGradient id="linear1" gradientUnits="userSpaceOnUse" x1="960" y1="1695.1182" x2="960" y2="175.11812" gradientTransform="matrix(0.0330761,0,0,0.0330761,0,0)">
<stop offset="0" style="stop-color:rgb(74.117647%,74.117647%,74.117647%);stop-opacity:1;"/>
<stop offset="1" style="stop-color:rgb(87.843137%,87.843137%,87.843137%);stop-opacity:1;"/>
</linearGradient>
<linearGradient id="linear2" gradientUnits="userSpaceOnUse" x1="960" y1="1695.1182" x2="960" y2="175.11812" gradientTransform="matrix(0.0330761,0,0,0.0330761,0,0)">
<stop offset="0" style="stop-color:rgb(36.078431%,41.960784%,75.294118%);stop-opacity:1;"/>
<stop offset="1" style="stop-color:rgb(47.45098%,52.54902%,79.607843%);stop-opacity:1;"/>
</linearGradient>
<linearGradient id="linear3" gradientUnits="userSpaceOnUse" x1="960" y1="1695.1182" x2="960" y2="175.11813" gradientTransform="matrix(0.0330761,0,0,0.0330761,0,0)">
<stop offset="0" style="stop-color:rgb(95.686275%,26.27451%,21.176471%);stop-opacity:1;"/>
<stop offset="1" style="stop-color:rgb(93.72549%,32.54902%,31.372549%);stop-opacity:1;"/>
</linearGradient>
</defs>
<g id="surface1">
<path style=" stroke:none;fill-rule:nonzero;fill:url(#linear0);" d="M 30.429688 56.066406 L 33.074219 56.066406 L 33.074219 58.714844 L 30.429688 58.714844 Z M 30.429688 56.066406 "/>
<path style=" stroke:none;fill-rule:nonzero;fill:url(#radial0);" d="M 33.074219 56.066406 L 38.367188 56.066406 L 38.367188 53.421875 L 33.074219 53.421875 Z M 33.074219 56.066406 "/>
<path style=" stroke:none;fill-rule:nonzero;fill:url(#radial1);" d="M 30.429688 56.066406 L 25.136719 56.066406 L 25.136719 58.714844 L 30.429688 58.714844 Z M 30.429688 56.066406 "/>
<path style=" stroke:none;fill-rule:nonzero;fill:url(#radial2);" d="M 30.429688 56.066406 L 25.136719 56.066406 L 25.136719 53.421875 L 30.429688 53.421875 Z M 30.429688 56.066406 "/>
<path style=" stroke:none;fill-rule:nonzero;fill:url(#radial3);" d="M 33.074219 56.066406 L 38.367188 56.066406 L 38.367188 58.714844 L 33.074219 58.714844 Z M 33.074219 56.066406 "/>
<path style=" stroke:none;fill-rule:nonzero;fill:url(#linear1);" d="M 31.753906 5.792969 C 28.089844 5.792969 25.136719 8.742188 25.136719 12.40625 L 25.136719 28.539062 C 20.417969 30.9375 17.199219 35.835938 17.199219 41.515625 C 17.199219 49.578125 23.691406 56.066406 31.753906 56.066406 C 39.816406 56.066406 46.304688 49.578125 46.304688 41.515625 C 46.304688 35.835938 43.085938 30.9375 38.367188 28.539062 L 38.367188 12.40625 C 38.367188 8.742188 35.417969 5.792969 31.753906 5.792969 Z M 31.753906 5.792969 "/>
<path style=" stroke:none;fill-rule:nonzero;fill:url(#linear2);" d="M 31.753906 8.4375 C 29.554688 8.4375 27.785156 10.207031 27.785156 12.40625 L 27.785156 30.28125 C 23.148438 31.90625 19.84375 36.3125 19.84375 41.515625 C 19.84375 48.109375 25.15625 53.421875 31.753906 53.421875 C 38.351562 53.421875 43.660156 48.109375 43.660156 41.515625 C 43.660156 36.3125 40.355469 31.90625 35.722656 30.28125 L 35.722656 12.40625 C 35.722656 10.207031 33.953125 8.4375 31.753906 8.4375 Z M 31.753906 8.4375 "/>
<path style=" stroke:none;fill-rule:nonzero;fill:url(#linear3);" d="M 27.785156 25.652344 L 27.785156 30.28125 C 23.148438 31.90625 19.84375 36.3125 19.84375 41.515625 C 19.84375 48.109375 25.15625 53.421875 31.753906 53.421875 C 38.351562 53.421875 43.660156 48.109375 43.660156 41.515625 C 43.660156 36.3125 40.355469 31.90625 35.722656 30.28125 L 35.722656 25.652344 C 33.738281 23.652344 29.769531 23.652344 27.785156 25.652344 Z M 27.785156 25.652344 "/>
<path style=" stroke:none;fill-rule:nonzero;fill:rgb(100%,100%,100%);fill-opacity:0.960784;" d="M 31.753906 5.792969 C 28.089844 5.792969 25.136719 8.742188 25.136719 12.40625 L 25.136719 12.902344 C 25.136719 9.238281 28.089844 6.289062 31.753906 6.289062 C 35.417969 6.289062 38.367188 9.238281 38.367188 12.902344 L 38.367188 12.40625 C 38.367188 8.742188 35.417969 5.792969 31.753906 5.792969 Z M 25.136719 28.539062 C 20.417969 30.9375 17.199219 35.835938 17.199219 41.515625 C 17.199219 41.597656 17.199219 41.679688 17.203125 41.761719 C 17.292969 36.191406 20.488281 31.398438 25.136719 29.035156 Z M 38.367188 28.539062 L 38.367188 29.035156 C 43.019531 31.398438 46.210938 36.191406 46.304688 41.761719 C 46.304688 41.679688 46.304688 41.597656 46.304688 41.515625 C 46.304688 35.835938 43.085938 30.9375 38.367188 28.539062 Z M 38.367188 28.539062 "/>
<path style=" stroke:none;fill-rule:nonzero;fill:rgb(0%,0%,0%);fill-opacity:0.235294;" d="M 17.203125 41.15625 C 17.203125 41.277344 17.199219 41.394531 17.199219 41.515625 C 17.199219 49.578125 23.691406 56.066406 31.753906 56.066406 C 39.816406 56.066406 46.304688 49.578125 46.304688 41.515625 C 46.304688 41.394531 46.304688 41.277344 46.300781 41.15625 C 46.097656 49.039062 39.6875 55.324219 31.753906 55.324219 C 23.820312 55.324219 17.410156 49.039062 17.203125 41.15625 Z M 17.203125 41.15625 "/>
<path style="fill:none;stroke-width:11.338583;stroke-linecap:round;stroke-linejoin:round;stroke:rgb(12.941176%,12.941176%,12.941176%);stroke-opacity:1;stroke-miterlimit:4;" d="M 960.026444 175.140757 C 849.24962 175.140757 759.966806 264.305472 759.966806 375.082296 L 759.966806 862.831 C 617.303263 935.343762 519.98972 1083.439857 519.98972 1255.155745 C 519.98972 1498.911998 716.270191 1695.07437 960.026444 1695.07437 C 1203.782697 1695.07437 1399.94507 1498.911998 1399.94507 1255.155745 C 1399.94507 1083.439857 1302.631527 935.343762 1159.967983 862.831 L 1159.967983 375.082296 C 1159.967983 264.305472 1070.803269 175.140757 960.026444 175.140757 Z M 960.026444 175.140757 " transform="matrix(0.0330761,0,0,0.0330761,0,0)"/>
<path style=" stroke:none;fill-rule:nonzero;fill:rgb(100%,96.862745%,96.862745%);fill-opacity:1;" d="M 19.847656 41.824219 C 19.847656 41.914062 19.84375 42.007812 19.84375 42.101562 C 19.84375 48.695312 25.15625 54.007812 31.753906 54.007812 C 38.351562 54.007812 43.660156 48.695312 43.660156 42.101562 C 43.660156 42.007812 43.660156 41.914062 43.65625 41.824219 C 43.507812 48.285156 38.253906 53.445312 31.753906 53.445312 C 25.25 53.445312 20 48.285156 19.847656 41.824219 Z M 19.847656 41.824219 "/>
<path style=" stroke:none;fill-rule:nonzero;fill:rgb(0%,0%,0%);fill-opacity:0.235294;" d="M 31.753906 8.4375 C 29.554688 8.4375 27.785156 10.207031 27.785156 12.40625 L 27.785156 13.070312 C 27.785156 10.871094 29.554688 9.101562 31.753906 9.101562 C 33.953125 9.101562 35.722656 10.871094 35.722656 13.070312 L 35.722656 12.40625 C 35.722656 10.207031 33.953125 8.4375 31.753906 8.4375 Z M 27.785156 30.28125 C 23.148438 31.90625 19.84375 36.3125 19.84375 41.515625 C 19.84375 41.628906 19.847656 41.738281 19.851562 41.851562 C 19.984375 36.789062 23.246094 32.535156 27.785156 30.941406 Z M 35.722656 30.28125 L 35.722656 30.941406 C 40.257812 32.535156 43.523438 36.789062 43.65625 41.851562 C 43.660156 41.738281 43.660156 41.628906 43.660156 41.515625 C 43.660156 36.3125 40.355469 31.90625 35.722656 30.28125 Z M 35.722656 30.28125 "/>
<path style="fill:none;stroke-width:11.338583;stroke-linecap:round;stroke-linejoin:round;stroke:rgb(12.941176%,12.941176%,12.941176%);stroke-opacity:1;stroke-miterlimit:4;" d="M 960.026444 255.093753 C 893.53673 255.093753 840.037901 308.592582 840.037901 375.082296 L 840.037901 915.503137 C 699.854436 964.632304 599.942716 1097.84793 599.942716 1255.155745 C 599.942716 1454.506789 760.557301 1615.121375 960.026444 1615.121375 C 1159.495588 1615.121375 1319.992074 1454.506789 1319.992074 1255.155745 C 1319.992074 1097.84793 1220.080354 964.632304 1080.014988 915.503137 L 1080.014988 375.082296 C 1080.014988 308.592582 1026.516159 255.093753 960.026444 255.093753 Z M 960.026444 255.093753 " transform="matrix(0.0330761,0,0,0.0330761,0,0)"/>
</g>
</svg>
